X: 2118
T: Ömrümce Hep Adım Adım
C: İrfan Özbakır
O: Turkey
F: http://compmusic.upf.edu/node/140
N: rast--sarki--duyek--omrumce_hep--irfan_ozbakir
N: makam= rast
N: form= sarki
N: usul= duyek = 8/4
M: 8/4
L: 1/16
K: C _1/4B ^f  
Q: 1/4=168
%%MIDI tuningsystem comma53
z2 c2 d2 e2 c3d cB AG  | z2 B2 c2 d2 B3c BA GF  | \
w:   |   | 
z2 A2 B2 c2 A4 AG A2  | 
w:   | 
z2 F2 G2 A2 GF G2 GF G2  | z2 c2 d2 e2 c3d cB AG  | \
w:   |   | 
z2 B2 c2 d2 B3c BA GF  | 
w:   | 
z2 A2 B2 c2 A4 AG A2  | z2 F2 G2 A2 GF G2 GF G2  | \
w:   |   | 
z2 c2 d2 e2 d4 dc d2  | 
w:  Öm rüm ce  hep  SAZ  | 
B2 cd B2 A2 AB cd Bc A2  | A2 c2 B2 A2 G2 G6  | \
w:  a dım  *  a dım  SAZ  |  *  her  yer de  se ni   | 
F2 F4 AG G4 GF G2  | 
w:  a ra *  *  dım   SAZ  | 
z2 c2 d2 e2 d4 dc d2  | B2 cd B2 A2 AB cd Bc A2  | \
w:  Öm rüm ce  hep  SAZ  |  a dım  *  a dım  SAZ  | 
A2 c2 B2 A2 G2 G6  | 
w:  *  her  yer de  se ni   | 
c2 c4 ed d4 GB d2  | z2 g2 f2 a2 g4 g=f e2  | \
w:  a ra *  *  dım SAZ  |  Ben  kal bim den   | 
z2 =f2 e2 g2 f4 fe d2  | 
w:  baş ka  yer de   | 
z2 e2 d2 =f2 e4 ed c2  | z2 d2 c2 e2 d4 GB d2  | \
w:  i nan  se ni   |  bu la ma dım   SAZ  | 
G2 c2 d2 e2 c3d cB AG  | 
w:  *  Ben  kal bim den   | 
z2 B2 cd B2 A2 AB cd Bc  | A2 B2 A2 G2 F8  | \
w:  baş ka *  yer de  SAZ  |  *  i nan  se ni   | 
z2 F2 G2 A2 G2 F2 G2 A2  | 
w:  bu la ma dım   SAZ  | 
G2 c2 d2 e2 c3d cB AG  | z2 B2 cd B2 A2 AB cd Bc  | 
w:  *  Ben  kal bim den   |  baş ka *  yer de  SAZ  | 
A2 B2 A2 G2 F8  | z2 F2 G2 A2 G2 F2 G2 A2  | \
w:  *  i nan  se ni   |  bu la ma dım   SAZ  | 
A2 c2 d2 e2 c3d cB AG  | 
w:   | 
z2 B2 c2 d2 B3c BA GF  | z2 A2 B2 c2 A3B AG A2  | \
w:   |   | 
z2 d2 e2 f2 g8  | 
w:   | 
z2 g2 f2 a2 g8  | z2 c'2 c'2 c'2 c'4 c'b a2  | \
w:  Ke nar lar da   |  kö şe ler de   | 
z2 b2 b2 b2 b4 ba g2  | 
w:  ka deh ler de   | 
z2 a2 b2 a2 g8  | z2 g2 f2 a2 g8  | z2 c'2 c'2 c'2 c'4 c'b a2  | \
w:  şi şe ler de    |  Ke nar lar da   |  kö şe ler de   | 
z2 b2 b2 b2 b4 ba g2  | 
w:  ka deh ler de   | 
z2 a2 b2 a2 g8  | z2 g2 f2 a2 g4 g=f e2  | \
w:  şi şe ler de    |  Ben  kal bim den   | 
z2 =f2 e2 g2 f4 fe d2  | 
w:  baş ka  yer de   | 
z2 e2 d2 =f2 e4 ed c2  | z2 d2 c2 e2 d4 GB d2  | \
w:  i nan  se ni   |  bu la ma dım   SAZ  | 
G2 c2 d2 e2 c3d cB AG  | 
w:  *  Ben  kal bim den   | 
z2 B2 cd B2 A2 AB cd Bc  | A2 B2 A2 G2 F8  | \
w:  baş ka *  yer de  SAZ  |  *  i nan  se ni   | 
z2 F2 G2 A2 G2 F2 G2 A2  | 
w:  bu la ma dım   SAZ  | 
G2 c2 d2 e2 c3d cB AG  | z2 B2 cd B2 A2 AB cd Bc  | 
w:  *  Ben  kal bim den   |  baş ka *  yer de  SAZ  | 
A2 B2 A2 G2 F8  | z2 F2 G2 A2 G2 |
w:  *  i nan  se ni   |  bu la ma dım    | 


